img/InformalEvent.svg

<svg width="141" height="146" viewBox="0 0 141 146" fill="none" xmlns="http://www.w3.org/2000/svg">
<path d="M121.364 139.045L118.447 139.045L117.058 127.791L121.365 127.791L121.364 139.045Z" fill="#9E616A"/>
<path d="M122.108 141.874L112.701 141.874V141.755C112.701 140.783 113.086 139.852 113.773 139.165C114.46 138.479 115.391 138.093 116.362 138.093H116.363L122.109 138.093L122.108 141.874Z" fill="#2F2E41"/>
<path d="M110.893 139.045L107.975 139.045L106.587 127.791L110.893 127.791L110.893 139.045Z" fill="#9E616A"/>
<path d="M111.637 141.874L102.229 141.874V141.755C102.229 140.783 102.615 139.852 103.302 139.165C103.988 138.479 104.92 138.093 105.891 138.093H105.891L111.637 138.093L111.637 141.874Z" fill="#2F2E41"/>
<path d="M76.9116 60.1876C77.1448 60.5083 77.4455 60.774 77.7924 60.9659C78.1394 61.1578 78.5242 61.2713 78.9198 61.2984C79.3154 61.3255 79.7121 61.2656 80.082 61.1228C80.4518 60.98 80.7859 60.7578 81.0607 60.4719L86.8339 62.7264L89.0596 59.5522L80.862 56.4829C80.3512 56.0532 79.7004 55.8258 79.0331 55.8438C78.3658 55.8618 77.7282 56.1239 77.2413 56.5806C76.7544 57.0373 76.4518 57.6567 76.3911 58.3215C76.3303 58.9863 76.5155 59.6502 76.9116 60.1876V60.1876Z" fill="#9E616A"/>
<path d="M110.856 79.4194L103.255 81.8989L105.794 135.731L111.66 135.876L114.663 97.9129L115.344 135.726L122.598 136.126L125.272 79.4194H110.856Z" fill="#2F2E41"/>
<path d="M105.727 47.6866L125.236 43.4478L127.406 60.2461L125.599 68.2725L126.323 80.4703C126.323 80.4703 110.897 88.1481 103.255 81.8991C103.255 81.8991 109.397 65.766 105.837 58.2137L105.727 47.6866Z" fill="#E4E4E4"/>
<path d="M109.106 50.0619L105.727 47.6859C105.727 47.6859 105.528 47.4095 102.712 50.701C99.8965 53.9926 94.1848 59.2283 94.1848 59.2283L84.6653 55.6585L82.931 62.0663L93.9946 67.222L109.658 56.7613L109.106 50.0619Z" fill="#E4E4E4"/>
<path d="M126.326 86.7667C126.685 86.5973 127.002 86.3514 127.255 86.0463C127.508 85.7411 127.691 85.3842 127.792 85.0006C127.892 84.617 127.907 84.216 127.836 83.826C127.764 83.436 127.608 83.0664 127.379 82.7432L130.669 77.491L127.965 74.7129L123.422 82.1952C122.905 82.6171 122.56 83.2141 122.454 83.8731C122.347 84.5321 122.486 85.2073 122.844 85.7708C123.202 86.3343 123.754 86.7469 124.396 86.9304C125.038 87.114 125.725 87.0557 126.326 86.7667Z" fill="#9E616A"/>
<path d="M122.193 46.7566L125.236 43.4474C125.236 43.4474 128.627 42.2667 131.397 48.3678C134.167 54.4689 137.261 66.8442 137.261 66.8442L130.027 80.7777L124.409 78.2676L130.027 66.7458L124.082 58.2134L122.193 46.7566Z" fill="#E4E4E4"/>
<path d="M117.034 42.0689C120.102 40.3913 121.23 36.5436 119.553 33.4748C117.875 30.4059 114.027 29.2781 110.959 30.9557C107.89 32.6332 106.762 36.4809 108.439 39.5498C110.117 42.6186 113.965 43.7465 117.034 42.0689Z" fill="#9E616A"/>
<path d="M119.336 30.8505C119.037 29.593 117.988 28.6005 116.782 28.1351C115.576 27.6696 114.233 27.6741 112.959 27.8907C110.843 28.2501 108.868 29.1623 106.922 30.0654L108.422 30.7832L106.352 30.9019L107.951 31.7292C107.524 32.0543 107.199 32.4952 107.015 32.9994C106.831 33.5037 106.795 34.0501 106.912 34.5741C106.995 34.9169 107.215 35.2947 107.567 35.3066C107.993 35.3209 108.215 34.8244 108.514 34.5199C108.91 34.1147 109.537 34.0248 110.099 34.1012C110.661 34.1775 111.194 34.3937 111.748 34.5132C112.449 34.6593 113.173 34.6512 113.871 34.4896C114.568 34.328 115.222 34.0167 115.787 33.5773L117.782 38.3808C117.763 38.1997 117.787 38.0166 117.85 37.846C117.914 37.6753 118.016 37.5217 118.149 37.3971C118.282 37.2724 118.442 37.1802 118.616 37.1276C118.79 37.0749 118.974 37.0633 119.154 37.0935C119.334 37.1238 119.504 37.1952 119.651 37.3021C119.799 37.409 119.919 37.5486 120.004 37.7099C120.089 37.8712 120.135 38.0498 120.139 38.2319C120.143 38.414 120.105 38.5945 120.028 38.7595C120.892 37.457 121.586 35.9772 121.61 34.4146C121.634 32.8519 120.859 31.2058 119.44 30.5501" fill="#2F2E41"/>
<path d="M45.946 127.885L43.2485 132.126L44.8197 126.605C41.5023 123.143 36.9097 120.611 36.9097 120.611C36.9097 120.611 31.2546 129.905 32.7767 135.622C34.2988 141.339 38.2289 142.431 42.4215 141.314C46.6141 140.198 49.4814 137.297 47.9593 131.58C47.6206 130.308 46.8846 129.058 45.946 127.885Z" fill="#F2F2F2"/>
<path d="M42.377 132.548L42.4521 132.83C43.3074 136.11 43.4354 138.813 42.8305 140.901C42.8222 140.932 42.8122 140.962 42.8039 140.992L42.6628 140.95L42.5277 140.909C43.2129 138.645 42.9071 135.785 42.1618 132.924C42.1387 132.831 42.1152 132.738 42.0889 132.644C41.7627 131.436 41.363 130.232 40.928 129.075C40.8951 128.985 40.8605 128.894 40.8258 128.804C40.2438 127.279 39.6077 125.844 39.0184 124.607C38.9772 124.52 38.9345 124.432 38.8923 124.346C37.8862 122.257 37.0334 120.776 36.8418 120.449C36.8192 120.409 36.8059 120.387 36.803 120.382L36.9255 120.309L36.9265 120.307L37.0504 120.234C37.0533 120.239 37.0982 120.312 37.1766 120.45C37.473 120.962 38.2601 122.359 39.1676 124.236C39.2081 124.321 39.2507 124.408 39.292 124.495C39.7712 125.499 40.2794 126.627 40.7626 127.825C40.8845 128.126 41.0011 128.424 41.1124 128.718C41.1484 128.809 41.1831 128.9 41.216 128.99C41.6864 130.24 42.0734 131.427 42.377 132.548Z" fill="white"/>
<path d="M39.1675 124.236C39.0774 124.273 38.9859 124.311 38.8922 124.346C38.638 124.443 38.3789 124.526 38.1162 124.596C36.9966 124.896 35.8241 124.94 34.6849 124.727C34.646 124.816 34.6071 124.906 34.5672 124.997C35.7685 125.233 37.0078 125.191 38.1904 124.875C38.471 124.8 38.7473 124.711 39.0184 124.607C39.1107 124.572 39.2022 124.534 39.2919 124.495C40.034 124.179 40.7238 123.752 41.3377 123.229C41.2573 123.168 41.1786 123.109 41.1018 123.05C40.5189 123.538 39.8671 123.938 39.1675 124.236Z" fill="white"/>
<path d="M41.1124 128.718C41.0176 128.749 40.9221 128.778 40.8258 128.804C40.7969 128.813 40.7662 128.821 40.7369 128.829C39.5234 129.152 38.2497 129.177 37.0245 128.901C35.7993 128.626 34.6588 128.058 33.7004 127.247C33.6665 127.344 33.6326 127.441 33.6005 127.539C34.5914 128.354 35.7623 128.922 37.0163 129.195C38.2702 129.468 39.5711 129.438 40.8112 129.108C40.8503 129.097 40.8893 129.087 40.928 129.075C41.0253 129.048 41.1208 129.019 41.216 128.99C42.6852 128.517 43.9871 127.631 44.9661 126.437C44.8996 126.367 44.833 126.297 44.7651 126.227C43.8159 127.395 42.5465 128.261 41.1124 128.718Z" fill="white"/>
<path d="M42.377 132.548C42.2816 132.582 42.1854 132.614 42.0889 132.644C41.9853 132.676 41.8814 132.707 41.7768 132.735C40.1456 133.167 38.4183 133.059 36.8535 132.428C35.2887 131.796 33.9705 130.675 33.0964 129.231C33.0637 129.361 33.0306 129.489 33.0007 129.618C33.9319 131.042 35.2882 132.137 36.8769 132.747C38.4657 133.356 40.2062 133.45 41.8511 133.014C41.9557 132.986 42.06 132.957 42.1617 132.923C42.2601 132.894 42.3562 132.863 42.452 132.83C44.3834 132.15 45.9845 130.762 46.931 128.947C46.8742 128.851 46.8136 128.758 46.7526 128.664C45.8546 130.478 44.2851 131.872 42.377 132.548Z" fill="white"/>
<path d="M96.1487 24.4965C96.1487 14.4996 89.1792 6.39551 80.5818 6.39551C71.9845 6.39551 65.015 14.4996 65.015 24.4965C65.015 33.5633 70.748 41.0728 78.2287 42.3918V44.0976C78.2287 44.4199 78.3567 44.7289 78.5845 44.9568C78.8124 45.1846 79.1215 45.3127 79.4437 45.3127H81.7199C82.0422 45.3127 82.3512 45.1846 82.5791 44.9568C82.8069 44.7289 82.9349 44.4199 82.9349 44.0976V42.3918C90.4157 41.0728 96.1487 33.5633 96.1487 24.4965Z" fill="#6AC5D7"/>
<path d="M77.8544 43.8504C78.3415 43.393 78.9218 43.0464 79.5554 42.8345C80.1891 42.6225 80.8612 42.5502 81.5254 42.6225C82.1949 42.7001 82.8372 42.9321 83.4017 43.3002C83.9662 43.6683 84.4375 44.1625 84.7784 44.7438C85.1194 45.3079 85.3337 45.9394 85.4063 46.5945C85.4788 47.2496 85.408 47.9127 85.1987 48.5377C84.7895 49.7842 83.9198 50.8216 83.0281 51.7565C82.0926 52.7374 81.0752 53.642 80.1958 54.6757C78.7456 56.3904 77.7329 58.4312 77.2447 60.6233C76.7565 62.8153 76.8072 65.093 77.3926 67.2611C78.1642 70.0091 79.7574 72.4556 81.9588 74.2726C82.2382 74.501 82.526 74.7185 82.8223 74.9253C83.165 75.1651 83.4895 74.6031 83.1496 74.3652C80.7597 72.6745 78.9935 70.2434 78.1241 67.448C77.465 65.2697 77.3806 62.9578 77.8793 60.7372C78.378 58.5166 79.4428 56.4628 80.9702 54.7755C81.8979 53.7512 82.9366 52.8343 83.864 51.8098C84.7524 50.8283 85.5623 49.7209 85.9093 48.4242C86.085 47.7649 86.1285 47.0774 86.0374 46.4013C85.9463 45.7251 85.7224 45.0736 85.3786 44.4843C85.0362 43.8819 84.5732 43.3567 84.0184 42.9416C83.4636 42.5265 82.8291 42.2304 82.1546 42.072C80.7976 41.777 79.3791 42.0226 78.2003 42.7566C77.9115 42.9408 77.642 43.1536 77.3958 43.3918C77.0945 43.6819 77.5535 44.1402 77.8544 43.8504V43.8504Z" fill="#3F3D56"/>
<path d="M36.162 16.916C31.3989 5.96635 19.904 0.410581 10.4873 4.50684C1.07056 8.60311 -2.7019 20.8002 2.06119 31.7498C6.3811 41.6807 16.2385 47.1744 25.0605 45.0548L25.8733 46.9232C26.0268 47.2761 26.3143 47.5536 26.6724 47.6947C27.0306 47.8357 27.4301 47.8287 27.783 47.6751L30.2762 46.5906C30.6291 46.4371 30.9066 46.1496 31.0476 45.7914C31.1887 45.4333 31.1816 45.0338 31.0281 44.6808L30.2153 42.8125C37.7805 37.8036 40.482 26.8468 36.162 16.916Z" fill="#6AC5D7"/>
<path d="M25.2982 46.776C25.6077 46.063 26.0635 45.423 26.6361 44.8975C27.2087 44.3719 27.8853 43.9725 28.6222 43.7251C29.3457 43.4815 30.1137 43.3989 30.8725 43.4832C31.6312 43.5675 32.3624 43.8166 33.0148 44.2131C33.6869 44.6113 34.2664 45.1482 34.7147 45.788C35.1629 46.4277 35.4696 47.1557 35.6144 47.9234C35.9468 49.7025 35.4074 51.5146 34.7944 53.171C34.1519 54.9073 33.3512 56.5936 32.9045 58.3967C32.2827 60.9309 32.2701 63.5764 32.8678 66.1164C33.4654 68.6564 34.6563 71.0187 36.3428 73.0098C38.4669 75.4712 41.2645 77.2578 44.3911 78.1496C44.7746 78.2577 45.1622 78.35 45.5527 78.4291C45.9602 78.5116 46.1346 77.8865 45.7251 77.8036C42.472 77.134 39.5074 75.47 37.2413 73.0419C34.8391 70.4447 33.3879 67.1101 33.1245 63.5821C32.9835 61.7947 33.1473 59.9962 33.609 58.2637C34.1018 56.4355 34.9361 54.7238 35.565 52.9424C36.1652 51.2426 36.5905 49.4173 36.2134 47.6185C35.8667 46.0347 34.9057 44.6533 33.5413 43.7775C32.8873 43.3463 32.1543 43.0494 31.3846 42.904C30.6149 42.7586 29.8241 42.7676 29.0579 42.9305C27.4933 43.285 26.1225 44.2222 25.2244 45.5515C25.0059 45.8829 24.8211 46.2354 24.6728 46.6036C24.5133 46.9889 25.1406 47.1568 25.2982 46.776L25.2982 46.776Z" fill="#3F3D56"/>
<path d="M13.8796 91.9507L13.023 93.0255L9.99304 91.2332L10.8497 90.1582L13.8796 91.9507Z" fill="#E4E4E4"/>
<path d="M17.0412 96.5684L17.7979 97.6976L14.6149 99.2809L13.8582 98.1516L17.0412 96.5684Z" fill="#E4E4E4"/>
<path d="M20.3361 91.6597L21.8483 91.7131L21.6978 94.877L20.1857 94.8236L20.3361 91.6597Z" fill="#E4E4E4"/>
<path d="M49.5536 6.33309L48.697 7.40786L45.6671 5.61551L46.5237 4.54053L49.5536 6.33309Z" fill="#E4E4E4"/>
<path d="M52.7152 10.9512L53.4719 12.0804L50.2889 13.6637L49.5322 12.5345L52.7152 10.9512Z" fill="#E4E4E4"/>
<path d="M56.0102 6.04199L57.5224 6.0954L57.3719 9.25936L55.8597 9.20596L56.0102 6.04199Z" fill="#E4E4E4"/>
<path d="M133.658 17.5753L132.801 18.65L129.771 16.8577L130.628 15.7827L133.658 17.5753Z" fill="#E4E4E4"/>
<path d="M107.929 1.79257L107.073 2.86733L104.043 1.07498L104.899 0L107.929 1.79257Z" fill="#E4E4E4"/>
<path d="M111.091 6.41016L111.848 7.5394L108.665 9.12268L107.908 7.99344L111.091 6.41016Z" fill="#E4E4E4"/>
<path d="M114.386 1.50195L115.898 1.55536L115.748 4.71932L114.235 4.66592L114.386 1.50195Z" fill="#E4E4E4"/>
<path d="M134.087 82.5907L133.231 83.8384L136.261 85.919L137.117 84.6713L134.087 82.5907Z" fill="#E4E4E4"/>
<path d="M69.8128 139.209L72.4321 138.804L70.6363 117.875L64.7988 118.956L69.8128 139.209Z" fill="#FFB6B6"/>
<path d="M69.0123 138.458L74.171 137.66L74.1713 137.66C75.0432 137.525 75.9329 137.742 76.6447 138.264C77.3566 138.785 77.8323 139.568 77.9671 140.439L77.9836 140.546L69.5372 141.852L69.0123 138.458Z" fill="#2F2E41"/>
<path d="M42.2817 138.95L44.9298 139.063L48.1509 120.47L42.3133 120.47L42.2817 138.95Z" fill="#FFB6B6"/>
<path d="M41.643 138.056L46.8583 138.278H46.8586C47.74 138.316 48.5704 138.702 49.1672 139.352C49.7639 140.002 50.078 140.862 50.0405 141.744L50.0359 141.852L41.4968 141.488L41.643 138.056Z" fill="#2F2E41"/>
<path d="M47.4957 78.3727C47.3707 78.3376 47.2428 78.3138 47.1135 78.3015L48.7645 64.7885L54.3661 52.9257C54.7186 52.1794 54.7749 51.3273 54.5237 50.5412C54.2726 49.755 53.7327 49.0934 53.0129 48.6897C52.2931 48.286 51.447 48.1703 50.6452 48.3659C49.8435 48.5614 49.1457 49.0538 48.6927 49.7436V49.7436C47.2246 51.979 46.114 54.4297 45.401 57.0073L43.0476 65.5164L44.7685 80.1088C44.7025 80.5201 44.7568 80.9417 44.9248 81.3229C45.0927 81.7041 45.3673 82.0286 45.7154 82.2574C46.0635 82.4862 46.4703 82.6096 46.8868 82.6126C47.3034 82.6157 47.7119 82.4983 48.0633 82.2746C48.4147 82.0509 48.694 81.7304 48.8675 81.3517C49.0411 80.9731 49.1015 80.5523 49.0416 80.1401C48.9816 79.7279 48.8038 79.3417 48.5295 79.0282C48.2553 78.7147 47.8963 78.487 47.4957 78.3727H47.4957Z" fill="#FFB6B6"/>
<path d="M50.8968 65.9321L43.8195 57.8359L47.3256 49.5894C47.7847 48.5095 48.6476 47.6519 49.7303 47.1994C50.8129 46.7469 52.0296 46.7355 53.1205 47.1675C54.2115 47.5996 55.0904 48.441 55.5697 49.512C56.049 50.5831 56.0906 51.7991 55.6859 52.9004L50.8968 65.9321Z" fill="#2F2E41"/>
<path d="M62.6614 40.1224C64.3641 37.0076 63.2194 33.1022 60.1046 31.3995C56.9898 29.6968 53.0844 30.8415 51.3817 33.9563C49.679 37.0711 50.8237 40.9765 53.9385 42.6792C57.0533 44.3819 60.9587 43.2372 62.6614 40.1224Z" fill="#FFB6B6"/>
<path d="M58.0964 29.2305H53.9443C51.2223 29.2305 49.0157 31.7129 49.0157 34.7752L49.2078 42.2028C52.149 42.5687 55.0257 43.3381 57.7569 44.4894L58.1444 42.8344L58.9088 45.014C59.5887 45.3434 60.2628 45.7036 60.9311 46.0945C60.1511 42.4296 59.83 38.7732 60.3656 35.9329H61.7719V34.3939L62.2493 35.9329H64.7988V35.9328C64.7988 35.0527 64.6254 34.1811 64.2886 33.3679C63.9518 32.5548 63.4581 31.8159 62.8357 31.1935C62.2133 30.5712 61.4745 30.0775 60.6613 29.7406C59.8481 29.4038 58.9765 29.2305 58.0964 29.2305Z" fill="#2F2E41"/>
<path d="M71.6346 119.012L71.0331 119.157L70.5283 109.767L66.8527 81.6603L62.6367 70.9581L64.6907 63.499C64.6907 63.499 67.069 58.31 61.1233 54.3102L56.3667 46.3106C53.0811 44.1623 50.3778 45.567 48.9367 49.2186C47.6811 52.4003 46.7064 56.4255 47.2861 60.5802C48.5847 69.8869 49.6643 70.9581 49.6643 70.9581C49.6643 70.9581 41.5566 79.9306 43.2862 91.3895L42.3223 121.058L41.4403 121.022L41.3438 123.379L49.0485 123.695L49.1451 121.338L48.506 121.312L51.2859 109.551L55.3938 93.984L62.5286 113.01L64.9284 120.627L64.1378 120.817L64.6901 123.11L72.1869 121.305L71.6346 119.012Z" fill="#2F2E41"/>
<path d="M76.9293 65.736C76.842 65.8321 76.7636 65.9359 76.6949 66.0461L65.3434 58.5314L57.2334 48.2196C56.7233 47.5709 55.9861 47.1398 55.1706 47.0132C54.3551 46.8866 53.5219 47.074 52.8391 47.5376C52.1564 48.0011 51.6748 48.7064 51.4916 49.5111C51.3083 50.3157 51.437 51.1599 51.8517 51.8734C53.1956 54.1857 54.8918 56.2742 56.8793 58.0637L63.4403 63.9711L77.2639 68.9515C77.6024 69.1943 78.0038 69.3342 78.4199 69.3542C78.836 69.3742 79.249 69.2736 79.6092 69.0644C79.9694 68.8552 80.2615 68.5464 80.4504 68.1751C80.6392 67.8039 80.7167 67.3859 80.6736 66.9716C80.6305 66.5573 80.4686 66.1642 80.2074 65.8398C79.9461 65.5153 79.5967 65.2732 79.2011 65.1427C78.8055 65.0122 78.3807 64.9987 77.9776 65.104C77.5746 65.2092 77.2106 65.4287 76.9293 65.736H76.9293Z" fill="#FFB6B6"/>
<path d="M67.3193 57.1345L56.9141 59.8486L51.1031 53.0273C50.3421 52.1341 49.9604 50.9789 50.0393 49.8081C50.1183 48.6374 50.6516 47.5438 51.5256 46.7609C52.3996 45.9779 53.545 45.5676 54.7174 45.6173C55.8897 45.6671 56.9962 46.1731 57.8006 47.0274L67.3193 57.1345Z" fill="#2F2E41"/>
<path d="M140.206 145.272H0.257435C0.189159 145.272 0.123678 145.245 0.0753997 145.196C0.0271217 145.148 0 145.083 0 145.014C0 144.946 0.0271217 144.881 0.0753997 144.832C0.123678 144.784 0.189159 144.757 0.257435 144.757H140.206C140.275 144.757 140.34 144.784 140.389 144.832C140.437 144.881 140.464 144.946 140.464 145.014C140.464 145.083 140.437 145.148 140.389 145.196C140.34 145.245 140.275 145.272 140.206 145.272Z" fill="#CACACA"/>
</svg>

<svg width="141" height="146" fill="none" xmlns="http://www.w3.org/2000/svg"><path d="M121.364 139.045h-2.917l-1.389-11.254h4.307l-.001 11.254z" fill="#9E616A"/><path d="M122.108 141.874h-9.407v-.119a3.66 3.66 0 0 1 3.661-3.662H122.109l-.001 3.781z" fill="#2F2E41"/><path d="M110.893 139.045h-2.918l-1.388-11.254h4.306v11.254z" fill="#9E616A"/><path d="M111.637 141.874h-9.408v-.119a3.662 3.662 0 0 1 3.662-3.662h5.746v3.781z" fill="#2F2E41"/><path d="M76.912 60.188a2.713 2.713 0 0 0 4.149.284l5.773 2.254 2.226-3.174-8.198-3.07a2.727 2.727 0 0 0-3.95 3.706z" fill="#9E616A"/><path d="m110.856 79.42-7.601 2.479 2.539 53.832 5.866.145 3.003-37.963.681 37.813 7.254.4 2.674-56.707h-14.416z" fill="#2F2E41"/><path d="m105.727 47.687 19.509-4.24 2.17 16.8-1.807 8.025.724 12.198s-15.426 7.678-23.068 1.43c0 0 6.142-16.134 2.582-23.686l-.11-10.527z" fill="#E4E4E4"/><path d="m109.106 50.062-3.379-2.376s-.199-.276-3.015 3.015c-2.816 3.292-8.527 8.527-8.527 8.527l-9.52-3.57-1.734 6.408 11.064 5.156 15.663-10.46-.552-6.7z" fill="#E4E4E4"/><path d="M126.326 86.767A2.708 2.708 0 0 0 127.792 85a2.723 2.723 0 0 0-.413-2.258l3.29-5.252-2.704-2.778-4.543 7.482a2.725 2.725 0 0 0-.578 3.576 2.726 2.726 0 0 0 3.482.996z" fill="#9E616A"/><path d="m122.193 46.757 3.043-3.31s3.391-1.18 6.161 4.92c2.77 6.102 5.864 18.477 5.864 18.477l-7.234 13.934-5.618-2.51 5.618-11.522-5.945-8.533-1.889-11.456z" fill="#E4E4E4"/><path d="M117.034 42.069a6.334 6.334 0 0 0-6.075-11.113 6.333 6.333 0 1 0 6.075 11.113z" fill="#9E616A"/><path d="M119.336 30.85c-.299-1.257-1.348-2.25-2.554-2.715-1.206-.465-2.549-.46-3.823-.244-2.116.36-4.091 1.271-6.037 2.174l1.5.718-2.07.119 1.599.827a2.806 2.806 0 0 0-1.039 2.845c.083.343.303.72.655.733.426.014.648-.483.947-.787.396-.405 1.023-.495 1.585-.419.562.077 1.095.293 1.649.412a4.94 4.94 0 0 0 4.039-.936l1.995 4.804a1.187 1.187 0 0 1 .367-.984 1.184 1.184 0 0 1 1.855.313 1.174 1.174 0 0 1 .024 1.05c.864-1.303 1.558-2.783 1.582-4.345.024-1.563-.751-3.21-2.17-3.865" fill="#2F2E41"/><path d="m45.946 127.885-2.697 4.241 1.57-5.521c-3.317-3.462-7.91-5.994-7.91-5.994s-5.654 9.294-4.132 15.011c1.522 5.717 5.452 6.809 9.645 5.692 4.192-1.116 7.06-4.017 5.537-9.734-.338-1.272-1.074-2.522-2.013-3.695z" fill="#F2F2F2"/><path d="m42.377 132.548.075.282c.855 3.28.983 5.983.379 8.071l-.027.091-.141-.042-.135-.041c.685-2.264.38-5.124-.366-7.985a39.398 39.398 0 0 0-1.336-4.12 57.624 57.624 0 0 0-1.934-4.458 57.808 57.808 0 0 0-2.05-3.897l-.039-.067.123-.073v-.002l.124-.073c.003.005.048.078.127.216a60.164 60.164 0 0 1 1.99 3.786l.125.259c.48 1.004.987 2.132 1.47 3.33a41.903 41.903 0 0 1 .454 1.165c.47 1.25.857 2.437 1.161 3.558z" fill="#fff"/><path d="M39.167 124.236c-.09.037-.181.075-.275.11a7.833 7.833 0 0 1-4.207.381l-.118.27a8.035 8.035 0 0 0 4.725-.502 7.97 7.97 0 0 0 2.046-1.266c-.08-.061-.16-.12-.236-.179a7.738 7.738 0 0 1-1.934 1.186zM41.112 128.718c-.094.031-.19.06-.286.086l-.09.025a7.783 7.783 0 0 1-7.036-1.582l-.1.292a8.086 8.086 0 0 0 7.211 1.569l.117-.033a8.032 8.032 0 0 0 4.038-2.638 27.85 27.85 0 0 0-.2-.21 7.732 7.732 0 0 1-3.654 2.491z" fill="#fff"/><path d="M42.377 132.548a7.421 7.421 0 0 1-.6.187 7.81 7.81 0 0 1-8.68-3.504c-.033.13-.066.258-.096.387a8.101 8.101 0 0 0 8.85 3.396c.105-.028.209-.057.31-.091a6.73 6.73 0 0 0 .291-.093 8.076 8.076 0 0 0 4.479-3.883c-.057-.096-.117-.189-.178-.283a7.784 7.784 0 0 1-4.376 3.884z" fill="#fff"/><path d="M96.149 24.497c0-9.997-6.97-18.101-15.567-18.101-8.597 0-15.567 8.104-15.567 18.1 0 9.067 5.733 16.577 13.214 17.896v1.706a1.215 1.215 0 0 0 1.215 1.215h2.276a1.215 1.215 0 0 0 1.215-1.215v-1.706c7.48-1.32 13.214-8.829 13.214-17.896z" fill="#6AC5D7"/><path d="M77.854 43.85a4.63 4.63 0 0 1 3.671-1.227 4.353 4.353 0 0 1 3.253 2.12 4.545 4.545 0 0 1 .42 3.795c-.408 1.246-1.278 2.284-2.17 3.219-.935.98-1.953 1.885-2.832 2.919a13.884 13.884 0 0 0-2.803 12.585 13.998 13.998 0 0 0 4.566 7.012c.28.228.567.446.863.652.343.24.668-.322.328-.56a13.318 13.318 0 0 1-5.026-6.917 13.191 13.191 0 0 1 2.846-12.672c.928-1.025 1.967-1.942 2.894-2.966.888-.982 1.698-2.09 2.045-3.386a5.173 5.173 0 0 0-.53-3.94 5.032 5.032 0 0 0-3.224-2.412 5.336 5.336 0 0 0-3.955.685 5.105 5.105 0 0 0-.804.635c-.302.29.157.748.458.458z" fill="#3F3D56"/><path d="M36.162 16.916C31.399 5.966 19.904.411 10.487 4.506 1.071 8.604-2.702 20.8 2.061 31.75c4.32 9.93 14.177 15.424 23 13.305l.812 1.868a1.452 1.452 0 0 0 1.91.752l2.493-1.084a1.451 1.451 0 0 0 .752-1.91l-.813-1.868c7.566-5.01 10.267-15.966 5.947-25.897z" fill="#6AC5D7"/><path d="M25.298 46.776a5.548 5.548 0 0 1 3.324-3.05 5.24 5.24 0 0 1 4.393.487 5.497 5.497 0 0 1 2.6 3.71c.332 1.78-.208 3.592-.82 5.248-.643 1.736-1.444 3.423-1.89 5.226a16.518 16.518 0 0 0 3.438 14.613 16.67 16.67 0 0 0 8.048 5.14c.384.108.771.2 1.162.28.407.082.582-.544.172-.626a16.023 16.023 0 0 1-8.484-4.762 15.647 15.647 0 0 1-4.117-9.46 15.822 15.822 0 0 1 .485-5.318c.493-1.829 1.327-3.54 1.956-5.322.6-1.7 1.026-3.525.648-5.324a6.119 6.119 0 0 0-2.672-3.84 5.911 5.911 0 0 0-4.483-.847 6.309 6.309 0 0 0-3.834 2.62 5.95 5.95 0 0 0-.551 1.053c-.16.385.468.553.625.172z" fill="#3F3D56"/><path d="m13.88 91.95-.857 1.075-3.03-1.792.857-1.075 3.03 1.793zM17.041 96.568l.757 1.13-3.183 1.583-.757-1.13 3.183-1.583zM20.336 91.66l1.512.053-.15 3.164-1.512-.053.15-3.164zM49.554 6.333l-.857 1.075-3.03-1.792.857-1.075 3.03 1.792zM52.715 10.951l.757 1.13-3.183 1.583-.757-1.13 3.183-1.583zM56.01 6.042l1.512.053-.15 3.164-1.512-.053.15-3.164zM133.658 17.575l-.857 1.075-3.03-1.792.857-1.075 3.03 1.792zM107.929 1.793l-.856 1.074-3.03-1.792.856-1.075 3.03 1.793zM111.091 6.41l.757 1.13-3.183 1.583-.757-1.13 3.183-1.583zM114.386 1.502l1.512.053-.15 3.164-1.513-.053.151-3.164zM134.087 82.59l-.856 1.248 3.03 2.081.856-1.248-3.03-2.08z" fill="#E4E4E4"/><path d="m69.813 139.209 2.62-.405-1.797-20.929-5.837 1.081 5.014 20.253z" fill="#FFB6B6"/><path d="m69.012 138.458 5.159-.798a3.327 3.327 0 0 1 3.796 2.779l.017.107-8.447 1.306-.525-3.394z" fill="#2F2E41"/><path d="m42.282 138.95 2.648.113 3.22-18.593h-5.837l-.031 18.48z" fill="#FFB6B6"/><path d="m41.643 138.056 5.215.222a3.328 3.328 0 0 1 3.183 3.466l-.005.108-8.54-.364.147-3.432z" fill="#2F2E41"/><path d="M47.496 78.373a2.176 2.176 0 0 0-.383-.072l1.651-13.513 5.602-11.862a3.26 3.26 0 0 0-5.673-3.182 25.726 25.726 0 0 0-3.292 7.263l-2.353 8.51 1.72 14.592a2.161 2.161 0 1 0 2.728-1.736z" fill="#FFB6B6"/><path d="m50.897 65.932-7.078-8.096 3.507-8.247a4.497 4.497 0 0 1 8.36 3.311l-4.79 13.032z" fill="#2F2E41"/><path d="M62.661 40.122a6.428 6.428 0 1 0-11.28-6.166 6.428 6.428 0 0 0 11.28 6.166z" fill="#FFB6B6"/><path d="M58.096 29.23h-4.152c-2.722 0-4.928 2.483-4.928 5.545l.192 7.428a32.263 32.263 0 0 1 8.549 2.286l.387-1.655.765 2.18c.68.33 1.354.69 2.022 1.08-.78-3.664-1.101-7.32-.565-10.161h1.406v-1.54l.477 1.54h2.55a6.703 6.703 0 0 0-6.703-6.703zM71.635 119.012l-.602.145-.505-9.39-3.675-28.107-4.216-10.702L64.69 63.5s2.378-5.189-3.568-9.189l-4.756-8c-3.286-2.148-5.99-.743-7.43 2.909-1.256 3.181-2.23 7.206-1.65 11.361 1.298 9.307 2.377 10.378 2.377 10.378s-8.107 8.973-6.378 20.431l-.964 29.669-.882-.036-.096 2.357 7.704.316.097-2.357-.639-.026 2.78-11.761 4.108-15.567 7.135 19.026 2.4 7.617-.791.19.552 2.293 7.497-1.805-.552-2.293z" fill="#2F2E41"/><path d="M76.93 65.736c-.088.096-.166.2-.235.31l-11.352-7.515-8.11-10.311a3.26 3.26 0 0 0-5.381 3.653 25.721 25.721 0 0 0 5.027 6.19l6.561 5.908 13.824 4.98a2.161 2.161 0 1 0-.335-3.215z" fill="#FFB6B6"/><path d="m67.32 57.135-10.406 2.714-5.81-6.822a4.497 4.497 0 0 1 6.697-6l9.518 10.108z" fill="#2F2E41"/><path d="M140.206 145.272H.257a.255.255 0 0 1-.182-.076.256.256 0 0 1 0-.364.258.258 0 0 1 .182-.075h139.949a.26.26 0 0 1 .183.075.26.26 0 0 1 0 .364.257.257 0 0 1-.183.076z" fill="#CACACA"/></svg>
